build/documents/DocSettingsOutline.svg

<svg xmlns="http://www.w3.org/2000/svg" fill="none" viewBox="0 0 24 24" focusable="false"><path d="M0 0H24V24H0z"/><path fill="#74767B" fill-rule="evenodd" d="M20.0001 6C20.0001 4.34315 18.6569 3 17.0001 3L7.00684 3C5.34998 3 4.00684 4.34315 4.00684 6L4.00684 18C4.00684 19.6569 5.34998 21 7.00684 21L17.0001 21C18.6569 21 20.0001 19.6569 20.0001 18L20.0001 6ZM17.0001 4.3L7.00684 4.3C6.06795 4.3 5.30684 5.06112 5.30684 6L5.30684 18C5.30684 18.9389 6.06795 19.7 7.00684 19.7L17.0001 19.7C17.939 19.7 18.7001 18.9389 18.7001 18L18.7001 6C18.7001 5.06112 17.939 4.3 17.0001 4.3Z"/><path fill="#74767B" d="M13.017 12.1067C13.017 12.659 12.5693 13.1067 12.017 13.1067C11.4647 13.1067 11.017 12.659 11.017 12.1067C11.017 11.5544 11.4647 11.1067 12.017 11.1067C12.5693 11.1067 13.017 11.5544 13.017 12.1067Z"/><path fill="#74767B" d="M13.017 12.1067C13.017 12.659 12.5693 13.1067 12.017 13.1067C11.4647 13.1067 11.017 12.659 11.017 12.1067C11.017 11.5544 11.4647 11.1067 12.017 11.1067C12.5693 11.1067 13.017 11.5544 13.017 12.1067Z"/><path fill="#74767B" fill-rule="evenodd" d="M12.6535 7.21396C12.6535 6.85497 12.3625 6.56396 12.0035 6.56396C11.6446 6.56396 11.3535 6.85497 11.3535 7.21396L11.3535 8.11123C10.7344 8.20837 10.1622 8.44734 9.67142 8.79383L9.04701 8.16942C8.79317 7.91558 8.38162 7.91558 8.12778 8.16942C7.87393 8.42326 7.87393 8.83482 8.12778 9.08866L8.74433 9.70522C8.3853 10.1957 8.13513 10.7709 8.02938 11.3953L7.17232 11.3953C6.81334 11.3953 6.52232 11.6863 6.52232 12.0453C6.52232 12.4042 6.81334 12.6953 7.17232 12.6953L8.02157 12.6953C8.12059 13.3263 8.36689 13.9084 8.7242 14.4054L8.12778 15.0018C7.87393 15.2557 7.87393 15.6672 8.12778 15.9211C8.38162 16.1749 8.79317 16.1749 9.04701 15.9211L9.64346 15.3246C10.1404 15.6819 10.7226 15.9282 11.3535 16.0272L11.3535 16.8764C11.3535 17.2353 11.6446 17.5264 12.0035 17.5264C12.3625 17.5264 12.6535 17.2353 12.6535 16.8764L12.6535 16.0193C13.2778 15.9136 13.853 15.6634 14.3435 15.3044L14.9601 15.921C15.214 16.1749 15.6255 16.1749 15.8794 15.921C16.1332 15.6672 16.1332 15.2556 15.8794 15.0018L15.2549 14.3773C15.6014 13.8865 15.8403 13.3144 15.9375 12.6953L16.8347 12.6953C17.1937 12.6953 17.4847 12.4042 17.4847 12.0453C17.4847 11.6863 17.1937 11.3953 16.8347 11.3953L15.9297 11.3953C15.8259 10.7827 15.5832 10.2175 15.235 9.73313L15.8794 9.08874C16.1332 8.8349 16.1332 8.42334 15.8794 8.1695C15.6255 7.91566 15.214 7.91566 14.9601 8.1695L14.3158 8.81387C13.8314 8.46563 13.2661 8.22284 12.6535 8.11907L12.6535 7.21396ZM11.9795 14.7758C13.4743 14.7758 14.6861 13.564 14.6861 12.0692C14.6861 10.5744 13.4743 9.36261 11.9795 9.36261C10.4847 9.36261 9.27294 10.5744 9.27294 12.0692C9.27294 13.564 10.4847 14.7758 11.9795 14.7758Z"/><path fill="#74767B" fill-rule="evenodd" d="M12.6535 7.21396C12.6535 6.85497 12.3625 6.56396 12.0035 6.56396C11.6446 6.56396 11.3535 6.85497 11.3535 7.21396L11.3535 8.11123C10.7344 8.20837 10.1622 8.44734 9.67142 8.79383L9.04701 8.16942C8.79317 7.91558 8.38162 7.91558 8.12778 8.16942C7.87393 8.42326 7.87393 8.83482 8.12778 9.08866L8.74433 9.70522C8.3853 10.1957 8.13513 10.7709 8.02938 11.3953L7.17232 11.3953C6.81334 11.3953 6.52232 11.6863 6.52232 12.0453C6.52232 12.4042 6.81334 12.6953 7.17232 12.6953L8.02157 12.6953C8.12059 13.3263 8.36689 13.9084 8.7242 14.4054L8.12778 15.0018C7.87393 15.2557 7.87393 15.6672 8.12778 15.9211C8.38162 16.1749 8.79317 16.1749 9.04701 15.9211L9.64346 15.3246C10.1404 15.6819 10.7226 15.9282 11.3535 16.0272L11.3535 16.8764C11.3535 17.2353 11.6446 17.5264 12.0035 17.5264C12.3625 17.5264 12.6535 17.2353 12.6535 16.8764L12.6535 16.0193C13.2778 15.9136 13.853 15.6634 14.3435 15.3044L14.9601 15.921C15.214 16.1749 15.6255 16.1749 15.8794 15.921C16.1332 15.6672 16.1332 15.2556 15.8794 15.0018L15.2549 14.3773C15.6014 13.8865 15.8403 13.3144 15.9375 12.6953L16.8347 12.6953C17.1937 12.6953 17.4847 12.4042 17.4847 12.0453C17.4847 11.6863 17.1937 11.3953 16.8347 11.3953L15.9297 11.3953C15.8259 10.7827 15.5832 10.2175 15.235 9.73313L15.8794 9.08874C16.1332 8.8349 16.1332 8.42334 15.8794 8.1695C15.6255 7.91566 15.214 7.91566 14.9601 8.1695L14.3158 8.81387C13.8314 8.46563 13.2661 8.22284 12.6535 8.11907L12.6535 7.21396ZM11.9795 14.7758C13.4743 14.7758 14.6861 13.564 14.6861 12.0692C14.6861 10.5744 13.4743 9.36261 11.9795 9.36261C10.4847 9.36261 9.27294 10.5744 9.27294 12.0692C9.27294 13.564 10.4847 14.7758 11.9795 14.7758Z"/></svg>

<svg xmlns="http://www.w3.org/2000/svg" fill="none" viewBox="0 0 24 24" focusable="false"><g fill="#74767B"><path fill-rule="evenodd" d="M20 6c0-1.66-1.35-3-3-3H7C5.35 3 4 4.34 4 6v12c0 1.65 1.35 3 3 3h10c1.65 0 3-1.35 3-3zm-3-1.71H7c-.94 0-1.7.77-1.7 1.71v12c0 .93.76 1.7 1.7 1.7h10c.93 0 1.7-.77 1.7-1.7V6c0-.94-.77-1.71-1.7-1.71"/><path d="M13.01 12.1c0 .55-.45 1-1 1s-1-.45-1-1 .45-1 1-1 1 .45 1 1"/><path fill-rule="evenodd" d="M12.65 7.21c0-.36-.29-.65-.65-.65s-.65.29-.65.65v.9c-.62.09-1.19.33-1.68.68l-.63-.63a.66.66 0 0 0-.92 0c-.25.26-.25.67 0 .92l.62.62c-.36.49-.61 1.07-.72 1.69h-.85c-.36 0-.65.29-.65.65s.29.65.65.65h.85c.1.63.34 1.21.7 1.71l-.6.6c-.25.25-.25.66 0 .92.26.25.67.25.92 0l.6-.6c.5.36 1.08.6 1.71.7v.85c0 .36.29.65.65.65s.65-.29.65-.65v-.86c.62-.1 1.2-.35 1.69-.71l.62.62c.25.25.66.25.91 0a.64.64 0 0 0 0-.92l-.62-.63c.35-.49.59-1.06.68-1.68h.9c.36 0 .65-.29.65-.65s-.29-.65-.65-.65h-.91a3.9 3.9 0 0 0-.69-1.66l.64-.65a.64.64 0 0 0 0-.92.646.646 0 0 0-.91 0l-.65.65c-.48-.35-1.05-.59-1.66-.7zm-.68 7.56a2.706 2.706 0 1 0 .008-5.412 2.706 2.706 0 0 0-.008 5.412"/></g></svg>
